cssgg/chevron-double-up-o.svg

<svg
  width="24"
  height="24"
  viewBox="0 0 24 24"
  fill="none"
  xmlns="http://www.w3.org/2000/svg"
>
  <path
    d="M14.8284 12.7071L16.2426 11.2929L12 7.05027L7.75739 11.2929L9.1716 12.7071L12 9.87869L14.8284 12.7071Z"
    fill="currentColor"
  />
  <path
    d="M14.8284 16.9497L16.2426 15.5355L12 11.2929L7.75739 15.5355L9.1716 16.9497L12 14.1213L14.8284 16.9497Z"
    fill="currentColor"
  />
  <path
    fill-rule="evenodd"
    clip-rule="evenodd"
    d="M1 12C1 18.0751 5.92487 23 12 23C18.0751 23 23 18.0751 23 12C23 5.92487 18.0751 1 12 1C5.92487 1 1 5.92487 1 12ZM3 12C3 16.9706 7.02944 21 12 21C16.9706 21 21 16.9706 21 12C21 7.02944 16.9706 3 12 3C7.02944 3 3 7.02944 3 12Z"
    fill="currentColor"
  />
</svg>

<svg viewBox="0 0 24 24" xmlns="http://www.w3.org/2000/svg"><g><path d="M14.82 12.7l1.41-1.42 -4.25-4.25 -4.25 4.24 1.41 1.41 2.82-2.83 2.82 2.82Z"/><path d="M14.82 16.94l1.41-1.42 -4.25-4.25 -4.25 4.24 1.41 1.41 2.82-2.83 2.82 2.82Z"/><path fill-rule="evenodd" d="M1 12c0 6.07 4.92 11 11 11 6.07 0 11-4.93 11-11 0-6.08-4.93-11-11-11C5.92 1 1 5.92 1 12Zm2 0c0 4.97 4.02 9 9 9 4.97 0 9-4.03 9-9 0-4.98-4.03-9-9-9 -4.98 0-9 4.02-9 9Z"/></g></svg>
